core/assets/icons/share.android.svg

<svg width="24" height="24" viewBox="0 0 24 24" xmlns="http://www.w3.org/2000/svg"><g id="platform=android"><path id="Vector" d="M13.1202 17.0232L8.92121 14.7332C8.373 15.3193 7.66119 15.7269 6.87828 15.9031C6.09537 16.0793 5.27756 16.0159 4.53113 15.7212C3.7847 15.4266 3.14417 14.9142 2.69277 14.2506C2.24138 13.5871 2 12.8032 2 12.0007C2 11.1982 2.24138 10.4143 2.69277 9.75076C3.14417 9.08725 3.7847 8.57486 4.53113 8.28016C5.27756 7.98547 6.09537 7.92211 6.87828 8.09832C7.66119 8.27452 8.373 8.68214 8.92121 9.2682L13.1212 6.9782C12.8828 6.03428 12.9968 5.03579 13.4418 4.16991C13.8869 3.30402 14.6325 2.63018 15.5389 2.2747C16.4452 1.91923 17.4501 1.90651 18.3652 2.23894C19.2803 2.57137 20.0427 3.22612 20.5095 4.08046C20.9764 4.93481 21.1156 5.93009 20.9011 6.87975C20.6866 7.82941 20.1332 8.66824 19.3444 9.23901C18.5557 9.80979 17.5859 10.0733 16.6168 9.9802C15.6477 9.88708 14.7458 9.44371 14.0802 8.7332L9.88021 11.0232C10.0414 11.6646 10.0414 12.3358 9.88021 12.9772L14.0792 15.2672C14.7448 14.5567 15.6467 14.1133 16.6158 14.0202C17.5849 13.9271 18.5547 14.1906 19.3434 14.7614C20.1322 15.3322 20.6856 16.171 20.9001 17.1207C21.1146 18.0703 20.9754 19.0656 20.5085 19.9199C20.0417 20.7743 19.2793 21.429 18.3642 21.7615C17.4491 22.0939 16.4442 22.0812 15.5379 21.7257C14.6315 21.3702 13.8859 20.6964 13.4408 19.8305C12.9958 18.9646 12.8818 17.9661 13.1202 17.0222V17.0232ZM6.00021 14.0002C6.53064 14.0002 7.03935 13.7895 7.41442 13.4144C7.78949 13.0393 8.00021 12.5306 8.00021 12.0002C8.00021 11.4698 7.78949 10.9611 7.41442 10.586C7.03935 10.2109 6.53064 10.0002 6.00021 10.0002C5.46977 10.0002 4.96107 10.2109 4.58599 10.586C4.21092 10.9611 4.00021 11.4698 4.00021 12.0002C4.00021 12.5306 4.21092 13.0393 4.58599 13.4144C4.96107 13.7895 5.46977 14.0002 6.00021 14.0002V14.0002ZM17.0002 8.0002C17.5306 8.0002 18.0393 7.78949 18.4144 7.41442C18.7895 7.03934 19.0002 6.53064 19.0002 6.0002C19.0002 5.46977 18.7895 4.96106 18.4144 4.58599C18.0393 4.21092 17.5306 4.0002 17.0002 4.0002C16.4698 4.0002 15.9611 4.21092 15.586 4.58599C15.2109 4.96106 15.0002 5.46977 15.0002 6.0002C15.0002 6.53064 15.2109 7.03934 15.586 7.41442C15.9611 7.78949 16.4698 8.0002 17.0002 8.0002V8.0002ZM17.0002 20.0002C17.5306 20.0002 18.0393 19.7895 18.4144 19.4144C18.7895 19.0393 19.0002 18.5306 19.0002 18.0002C19.0002 17.4698 18.7895 16.9611 18.4144 16.586C18.0393 16.2109 17.5306 16.0002 17.0002 16.0002C16.4698 16.0002 15.9611 16.2109 15.586 16.586C15.2109 16.9611 15.0002 17.4698 15.0002 18.0002C15.0002 18.5306 15.2109 19.0393 15.586 19.4144C15.9611 19.7895 16.4698 20.0002 17.0002 20.0002V20.0002Z"/></g></svg>

<svg xmlns="http://www.w3.org/2000/svg" width="24" height="24" fill="none"><path fill="#191C22" d="m13.12 17.023-4.199-2.29a4 4 0 1 1 0-5.465l4.2-2.29a4 4 0 1 1 .96 1.755l-4.2 2.29a4.008 4.008 0 0 1 0 1.954l4.198 2.29a4 4 0 1 1-.959 1.755v.001ZM6 14a2 2 0 1 0 0-4 2 2 0 0 0 0 4Zm11-6a2 2 0 1 0 0-4 2 2 0 0 0 0 4Zm0 12a2 2 0 1 0 0-4 2 2 0 0 0 0 4Z"/></svg>
